images/souvenirs.svg

<svg width="75" height="76" viewBox="0 0 75 76" fill="none" xmlns="http://www.w3.org/2000/svg">
<path d="M67.1 22.4625H67H42.3C56.1 15.5576 57.2 11.1546 56.7 8.75288C55.5 4.75007 51 1.74797 46.7 3.34909C41.1 5.45056 39.6 13.7564 38.1 19.7606C36.1 13.6563 34.3 5.95091 29.9 2.04818C28.6 0.947407 26.8 -0.253434 24.1 0.0467764C20.1 0.447057 14.3 5.45056 16.6 11.0545C18.9 16.4583 26.3 19.8607 31.2 22.5626H9.2H8.9C7.3 22.5626 6 23.8635 6 25.4646V36.7725C6 38.3736 7.3 39.6745 8.9 39.6745H9.2V72.9979V75.3996V76H67V75.4996V72.9979V39.5745H67.1C68.7 39.5745 70 38.2736 70 36.6724V25.3645C70 23.7634 68.7 22.4625 67.1 22.4625ZM48.4 5.85084C50.5 5.55063 53.4 7.15176 53.7 9.05309C54.1 11.8551 50.3 14.3568 48.6 15.4576C46.1 17.1588 43.7 18.0594 41.3 19.5604C42.2 15.8579 43.8 6.55133 48.4 5.85084ZM25.5 15.8579C23.3 14.3568 19 11.4548 19.1 8.05239C19.2 4.44986 24.8 1.44776 27.9 4.14965C31.8 7.55203 33.6 15.2574 35 20.7613C31.8 19.2602 28.7 17.9593 25.5 15.8579ZM31.5 72.9979H12.1V39.5745H31.5V72.9979ZM31.5 36.4723H9V25.4646H31.5V36.4723ZM41.7 36.4723V39.4744V72.9979H34.5V39.5745V36.5724V25.5647H41.7V36.4723ZM64 72.9979H44.6V39.5745H64V72.9979ZM66.9 36.4723H44.6V25.4646H66.9V36.4723Z" fill="#83B3D3"/>
</svg>

<svg xmlns="http://www.w3.org/2000/svg" width="75" height="76" fill="none" viewBox="0 0 75 76"><path fill="#83b3d3" d="M67.1 22.463H42.3c13.8-6.905 14.9-11.308 14.4-13.71-1.2-4.003-5.7-7.005-10-5.404-5.6 2.102-7.1 10.407-8.6 16.412-2-6.105-3.8-13.81-8.2-17.713-1.3-1.1-3.1-2.301-5.8-2.001-4 .4-9.8 5.404-7.5 11.008 2.3 5.403 9.7 8.806 14.6 11.508H8.9c-1.6 0-2.9 1.3-2.9 2.902v11.308c0 1.6 1.3 2.901 2.9 2.901h.3V76H67V39.574h.1c1.6 0 2.9-1.3 2.9-2.902V25.365c0-1.602-1.3-2.902-2.9-2.902M48.4 5.85c2.1-.3 5 1.3 5.3 3.202.4 2.802-3.4 5.304-5.1 6.405-2.5 1.7-4.9 2.601-7.3 4.102.9-3.702 2.5-13.009 7.1-13.71M25.5 15.858c-2.2-1.501-6.5-4.403-6.4-7.806.1-3.602 5.7-6.604 8.8-3.902 3.9 3.402 5.7 11.107 7.1 16.611-3.2-1.5-6.3-2.802-9.5-4.903m6 57.14H12.1V39.574h19.4zm0-36.526H9V25.465h22.5zm10.2 0v36.526h-7.2V25.565h7.2zM64 72.998H44.6V39.574H64zm2.9-36.526H44.6V25.465h22.3z"/></svg>
